app/images/icon/social-vk.svg

<svg width="30" height="30" viewBox="0 0 30 30" fill="none" xmlns="http://www.w3.org/2000/svg">
<rect width="30" height="30" rx="2" fill="#5181B8"/>
<path fill-rule="evenodd" clip-rule="evenodd" d="M22.6329 11.6094C22.7442 11.2582 22.6329 11 22.1035 11H20.3531C19.908 11 19.703 11.223 19.5917 11.4689C19.5917 11.4689 18.7015 13.5239 17.4404 14.8587C17.0325 15.2452 16.847 15.368 16.6245 15.368C16.5132 15.368 16.3522 15.2452 16.3522 14.8939V11.6094C16.3522 11.1878 16.223 11 15.8521 11H13.1014C12.8234 11 12.6561 11.1956 12.6561 11.3811C12.6561 11.7808 13.2865 11.8729 13.3515 12.9969V15.4384C13.3515 15.9737 13.2495 16.0708 13.0269 16.0708C12.4335 16.0708 10.9902 14.0065 10.134 11.6446C9.96619 11.1854 9.7979 11 9.35055 11H7.60014C7.10002 11 7 11.223 7 11.4689C7 11.9081 7.59351 14.0861 9.76314 16.9665C11.2097 18.9335 13.2475 20 15.1019 20C16.2147 20 16.3522 19.7632 16.3522 19.3552V17.8684C16.3522 17.3947 16.4576 17.3002 16.8098 17.3002C17.0696 17.3002 17.5146 17.4232 18.5532 18.3716C19.74 19.4955 19.9355 20 20.6032 20H22.3536C22.8537 20 23.1038 19.7632 22.9595 19.2957C22.8017 18.8299 22.2351 18.1542 21.4831 17.3529C21.0752 16.8962 20.4631 16.4044 20.2779 16.1585C20.0182 15.8424 20.0923 15.7019 20.2779 15.421C20.2779 15.421 22.4103 12.5756 22.6329 11.6095V11.6094Z" fill="white"/>
</svg>

<svg width="30" height="30" fill="none" xmlns="http://www.w3.org/2000/svg">
    <rect width="30" height="30" rx="2" fill="#5181B8"/>
    <path fill-rule="evenodd" clip-rule="evenodd" d="M22.633 11.61c.111-.352 0-.61-.53-.61h-1.75c-.445 0-.65.223-.761.469 0 0-.89 2.055-2.152 3.39-.408.386-.593.509-.816.509-.11 0-.272-.123-.272-.474v-3.285c0-.421-.129-.609-.5-.609h-2.75c-.279 0-.446.196-.446.381 0 .4.63.492.695 1.616v2.441c0 .536-.102.633-.324.633-.593 0-2.037-2.065-2.893-4.426-.168-.46-.336-.645-.783-.645H7.6C7.1 11 7 11.223 7 11.469c0 .44.594 2.617 2.763 5.498C11.21 18.933 13.248 20 15.102 20c1.113 0 1.25-.237 1.25-.645v-1.487c0-.473.106-.568.458-.568.26 0 .705.123 1.743 1.072C19.74 19.495 19.936 20 20.603 20h1.75c.5 0 .75-.237.606-.704-.157-.466-.724-1.142-1.476-1.943-.408-.457-1.02-.949-1.205-1.195-.26-.316-.186-.456 0-.737 0 0 2.132-2.845 2.355-3.811Z" fill="#fff"/>
</svg>
